X: 3037
T: ATHOLE'S HONEST MEN
C: J.S. Robertson
Q:"Strathspey."
R: Strathspey.
%R:strathspey
B: James Kerr "Merry Melodies" v.3 p.7 #37
Z: 2016 John Chambers <jc:trillian.mit.edu>
%%slurgraces yes
%%graceslurs yes
M: C
L: 1/8
K: G
uD |\
{EF}vG2 uD>uG vD>vG,uB,>uG, | A,<A, C<A, E<A, C<A, |\
{EF}G2 D>G D>CB,>D | (3EFG (3FGA B<G G ::\
B |\
G<G B>d g>dB>G |
(3cde (3dcB c<AA>B |\
[1 G<G B>d g>dB>G | c>ed>B G/G/G G :|\
[2 G>DB,>G, (3B,CD (3EFG | (3ABc (3BdA B<G G |]

%%sep 1 1 500
%%sep 1 1 500

